c1 $ spike' $ every 5 (|=| coarse "24 12 16") $
whenmod 20 17 (iter 8) $
foldEvery [2,3] (|+| begin "0.05") $
whenmod 25 20 (density 2) $
whenmod 18 14 (density 2) $
whenmod 22 18 (slow 2) $
sound "ringsurfing([3 5 7 6]/4,8)" |=| cut "1"
|=| begin "{0.8 0.22 0.8}%2"
|=| delaytime "0" |=| delayfeedback "0"

hush

c1 $ sound "r" |=| cut "1"
