cps 1

c1 $ sound "~ pson:2"

c2 $ every 2 (|+| n "2") $
slowcat [ s "[~ kl]*2 s", s "k*4 ~", s "[~ b]*2 ~",
s "gab(3,8)" |=| gain "0.9",
s "[c64 sub] peri pson peri*2",
s "fur1*2 fur2*2 fur3*2 fur4*2" |=| unit "c" |=| speed "8"] # n (run 10) # cut "-1"
