bps (200/120)

c1 $ jux (iter 8) $ slow 256 $ striate' 10000 (1/500) $ sound "algo"

hush

gran $ slow 4 $
stack [note "0"]
|=| dur "4"
|=| x (scale 0.3 0.7 $ shift' 1 $ rand)
|=| y (scale 0.501 0.7 $ shift' 2 $ rand)

gran silence

hush
