

d1 $ spreadChoose _fast [2..50] $
  degradeBy 0.9 $ shift $
    s (choose["k", "kl"])
    # lpf (scale 100 1000 $ slow 1.2 rand)
    # pan (rand)
    # rel (scale 0.1 0.7 $ slow 1.3 rand)
    # delay "0.5"
    # delayt (scale (1/4096) (1/8) $ slow 1.4 rand)
    # delayfb (scale 0.5 0.9 $ slow 1.5 rand)

    erebus silence

    volca silence

    hush