let gtfo p = (const $ midinote "~") $ p

do
  harmor $  
    (# x (scale 0 1 $ slow 25 tri1)) $
    (# y (scale 0 1 $ slow 26 tri1)) $
    (# z (scale 0.01 0.99 $ slow 24 tri1)) $
    (|+| note (discretise (1/8) $ slow 3 $ choose[0,-3,1,-5])) $
    (|+| note (discretise (1/8) $ slow 2 $ choose[0,-12,12])) $
    density 2 $ 
    spaceOut ([0.10,0.12..1] ++ [1,0.98..0.10]) $ 
    note "[0,-3,7,14]"
    # nudge "0"
  rytm $ stack [
    (|+| note (discretise (1/8) $ slow 3 $ choose[0,-3,1,-5])) $
        density 2 $ 
        spaceOut ([0.10,0.12..1] ++ [1,0.98..0.10]) $ midinote "37",
    density 2 $ 
        spaceOut ([0.10,0.12..1] ++ [1,0.98..0.10]) $ midinote "[8]",
    density 2 $ whenmod 6 1 (const $ midinote "~") $
        spaceOut ([0.10,0.12..1] ++ [1,0.98..0.10]) $ midinote "[3]" ]

        hush

