bps (140/120)

do
    let pat = "{1 ~ ~ 1 ~ ~ ~}%2"
        reppat = degradeBy 0.2 $ rep' 8 $ gain pat
        npat = n "[0]/4"
        nmod p = (whenmod 6 4 (|+| n "2")) $ p
    d1 $ stack [
        reppat # s "alstab" # npat |=| cut "323" # gain "1.1",
        gtfo $ reppat # s "alk" # npat |=| cut "2"]


hush
