bpm 140

flood "kindohm "

-- intro
d3 $ sometimes (jux (iter 8)) $ shift $ sometimes (|=| speed (slow 0.4 $ choose [0.5, 0.25, 0.75])) $ 
    shift $
    (|=| cutoff (slow 44 $ scale 50 3000 $ rand)) $ slow 16 $ 
        striate 128 $ sound (samples "dr:0" "[0 1]/8")
        # hpf 100
        # resonance "0.1" # gain "1.1"
        # orbit "1"
        # delaytime "0.3333" # delayfeedback "0.5" # delay "0.5"

d1 $ sound "legends:1*16" # cut "3" # gain "0.9"

d3 silence

hush
