bps (160/120)

do
  let pat = "{0 ~ ~ ~ 0 ~ ~}%8"
  let xx = gain pat
  let yy = gain (inverse <$> pat)
  d1 $
      stack [
      xx # n (run 5) # s "faller" |=| cut "1",
      yy # n (run 5) # s "wipers" |=| cut "2" ]

