bps (170/120)

keys $ whenmod 10 7 (|+| note "-12") $ whenmod 6 3 (|+| note "-12") $
every 3 (rev) $ density 2 $ every 2 (|+| note "12") $ (|+| note "-8") $
  note "0 4 7 11 12 16 19 23"
 # kportamento "0.05"
 # dur "0.18"
 # kdecay "1"
 # ksustain "0.999"
 # voice "0.2"
 # detune (scale 0.001 0.08 $ slow 13.66 sine1)
 # kcutoff "0.005"
 # klforate "0.001"
 # klfocutoffint "0.001"
 # vcfegint "0.5"
 # vcoegint "0.001"

keys silence
