let x2 p = slow 1 $ p
    s2 p = slow 1 $ p
    time3 p = slow 1 $ p

c1  $ every 15  ((|+| cut "2") . (|+| unit "c") . (|+| accelerate "1 2 5 19") . (|+| crush "12 14 6 8") . (|+| pan "{0.2 0.8}%8") . (stut  0 0.25 0.75)) $

c1 $
stack [
every 2 (s2) $ sound "ion1:2(10,12)" # cut "2" # speed "{1 -1 -1.5 1.25}%8",
degradeBy 0.4 $ x2 $ sound (samples "[ch(5,6)]/2" (irand 20 )) # cut "1" # speed "{1 3 2 -1 }%7",
every 2 (const $ sound "[doru amenall:1]*6" # speed "3" # gain "[0.8 0.6]*2") $
sound "{k:6*4 peri:7*4}%3" # gain "0.8" # speed "13" # gain "[0.8 0.6]*2",
slowcat [sound "k:19(7,12)" # speed "{0.912 0.456}%6" # end "0.25" # cut "-1",
sound (samples "{s ~ [ch*2] ~ k:2}%2" (irand 15))],
every 2 (time3) $ sound (samples "[~ jung1](5,12)" ("20 18 17 10"))]



d1 $ sound (samples "{k ~ [k*2], ~ k:2}%2" (irand 15))

d1 $ sound "s:5*4"


c1 $ sound "kh:4*8?"

hush
